!!!COM: Music21
!!!OTL: mazurka_Fisherman-In-The-Wardrobe--The
!!!OMV: mazurka_Fisherman-In-The-Wardrobe--The
**kern
*clefG2
*k[f#]
*M3/4
=1
4a
8aL
8gJ
8aL
8eeJ
=
8ggL
8ff#J
8ddL
8eeJ
8ccL
8bJ
=
4a
8aL
8gJ
8aL
8eeJ
=
8ggL
8ff#J
8ddL
8eeJ
4cc
=||
*M3/4
4a
8aL
8gJ
8aL
8eeJ
=
8ggL
8ff#J
8ddL
8eeJ
8ccL
8bJ
!!linebreak:original
=
4a
8aL
8gJ
8aL
8eeJ
=
8ggL
8ff#J
8ddL
8eeJ
4cc
=||
4ee
8ccL
8bJ
8ccL
8eeJ
=
4dd
8bL
8aJ
8bL
8eeJ
=
4dd
8bL
8aJ
8bL
8eeJ
=
8ddL
8ccJ
8bL
8ccJ
8aL
8ccJ
=||
*M3/4
4a
8aL
8gJ
8aL
8eeJ
!!linebreak:original
=
8ggL
8ff#J
8ddL
8eeJ
8ccL
8bJ
=
4a
8aL
8gJ
8aL
8eeJ
=
8ggL
8ff#J
8ddL
8eeJ
4cc
=||
*M3/4
4a
8aL
8gJ
8aL
8eeJ
=
8ggL
8ff#J
8ddL
8eeJ
8ccL
8bJ
=
4a
8aL
8gJ
8aL
8eeJ
=
8ggL
8ff#J
8ddL
8eeJ
4cc
!!linebreak:original
=||
4ee
8ccL
8bJ
8ccL
8eeJ
=
4dd
8bL
8aJ
8bL
8eeJ
=
4dd
8bL
8aJ
8bL
8eeJ
=
8ddL
8ccJ
8bL
8ccJ
8aL
8ccJ
=||
*-
